X:3024
T:Captain Lanoe's Quick March
T:Captain Nemo
R:Jig
C:Trad.
O:England, Sussex
Z:Paul Hardy's Session Tunebook 2015 (see www.paulhardy.net). Creative Commons cc by-nc-sa licenced.
M:6/8
L:1/8
Q:1/4=100
K:G
"G"G2B d2g|gfe d3|"D"cdc "G"B2B|"D"AGA "G"B2G|"G"G2Bd2g|gfe d3|"D"cdc "G"B2B|"D"AGA "G"G3:|
|:"Em"B3 B3|BAB "C"c3|"G"B2c d2c|B2A B2G|"Em"B3 B3|BAB "C"c3|"G"B2g dBG|"D8"A3 "G"G3:|

